launcher/android/assets/skins/day/svg/map-state-gps.svg

<svg enable-background="new 0 0 78.13 78.25" height="78.25" viewBox="0 0 78.13 78.25" width="78.125" xmlns="http://www.w3.org/2000/svg" xmlns:xlink="http://www.w3.org/1999/xlink"><linearGradient id="a" gradientTransform="matrix(0 1 -1 0 -1.847377 -2.847377)" gradientUnits="objectBoundingBox" x1=".5" x2="6.19475" y1="-2.34738" y2="-2.34738"><stop offset=".427907" stop-color="#eeeaea"/><stop offset=".576744" stop-color="#fff" stop-opacity="0"/></linearGradient><linearGradient id="b" gradientTransform="matrix(0 -1 1 0 -.518799 1.518735)" gradientUnits="objectBoundingBox" x1=".499968" x2="1.53738" y1="1.01877" y2="1.01877"><stop offset="0" stop-color="#1dff02"/><stop offset="1" stop-color="#3d8c33"/></linearGradient><g stroke-linejoin="round"><path d="m11.5.499988h55.125c6.0751 0 11 4.924862 11 11.000012v55.25c0 6.0751-4.9249 11-11 11h-55.125c-6.07513 0-11-4.9249-11-11v-55.25c0-6.07515 4.92487-11.000012 11-11.000012z" fill="#8c9e64" stroke="#000"/><path d="m65.9046.85419h-53.8619c-5.48902 0-10.017 4.21121-10.66769 9.64901 1.28572 2.512 3.8575 4.226 6.82042 4.226h61.92287c2.7386 0 5.1431-1.4643 6.5067-3.6696-.3978-5.70421-5.0455-10.20541-10.7204-10.20541z" fill="url(#a)" stroke-width=".2"/><path d="m35.0725 39.3569c-2.1117 1.1987-4.4975 1.7981-7.1575 1.7981-3.0596 0-5.5249-.9661-7.3959-2.8984-1.8711-1.9323-2.8066-4.5128-2.8066-7.7416 0-3.2637 1.0303-5.9463 3.0909-8.0478 2.0607-2.1015 4.701-3.1522 7.921-3.1522 2.2808 0 4.2102.5833 5.7881 1.75v2.52c-1.6946-1.1666-3.7129-1.75-6.055-1.75-2.3071 0-4.208.7788-5.7028 2.3363s-2.2422 3.6108-2.2422 6.16c0 2.6191.6883 4.6579 2.065 6.1162s3.236 2.1875 5.5781 2.1875c1.6129 0 2.9852-.3004 4.1169-.9012v-5.5388h-4.48v-2.52h7.28z"/><path d="m42.6325 33.035v7.84h-2.8v-21.28h5.9806c2.275 0 4.0403.5586 5.296 1.6756 1.2556 1.1171 1.8834 2.7155 1.8834 4.795 0 2.1059-.7284 3.8121-2.1853 5.1188s-3.2776 1.9235-5.4622 1.8506zm0-10.92v8.4h2.5069c1.6537 0 2.9093-.374 3.7668-1.1222.8575-.7481 1.2863-1.8192 1.2863-3.2134 0-2.7096-1.5983-4.0644-4.795-4.0644z"/><path d="m55.7925 36.605c.6621.5921 1.5466 1.0785 2.6534 1.4591 1.1069.3806 2.1591.5709 3.1566.5709 3.0333 0 4.55-1.0223 4.55-3.0669 0-.5716-.1633-1.0871-.49-1.5465s-.7744-.8648-1.3431-1.2163c-.5688-.3514-1.6348-.8932-3.1982-1.6253-2.1729-1.0646-3.6042-2.0533-4.294-2.9662-.6898-.913-1.0347-1.9571-1.0347-3.1325 0-1.7705.7189-3.1741 2.1569-4.211 1.4379-1.0368 3.252-1.5553 5.4425-1.5553 2.1437 0 3.7172.49 4.7206 1.47v2.52c-1.3154-.98-2.9794-1.47-4.9919-1.47-1.3358 0-2.4245.2705-3.2659.8116-.8415.541-1.2622 1.2928-1.2622 2.2553 0 .8546.2887 1.5502.8662 2.0869.5775.5366 1.8317 1.2687 3.7625 2.1962 2.1234.9829 3.6094 1.9658 4.4582 2.9488.8487.9829 1.2731 2.0868 1.2731 3.3118 0 1.8405-.6818 3.2521-2.0453 4.235-1.3636.983-3.2572 1.4744-5.681 1.4744-.8487 0-1.8375-.1407-2.9662-.4222-1.1288-.2814-1.9513-.6307-2.4675-1.0478z"/><path d="m11.6514 56.7862h54.8219c1.4299 0 2.5891 1.1591 2.5891 2.5889l0 0c0 1.4299-1.1592 2.589-2.5891 2.589h-54.8219c-1.4298 0-2.589-1.1591-2.589-2.589l0 0c0-1.4298 1.1592-2.5889 2.589-2.5889z" fill="url(#b)" stroke-width=".2"/></g></svg>

﻿<?xml version="1.0" encoding="utf-8"?>
<!DOCTYPE svg PUBLIC "-//W3C//DTD SVG 1.1//EN" "http://www.w3.org/Graphics/SVG/1.1/DTD/svg11.dtd">
<svg xmlns="http://www.w3.org/2000/svg" xmlns:xlink="http://www.w3.org/1999/xlink" version="1.1" baseProfile="full" width="78.125" height="78.25" viewBox="0 0 78.13 78.25" enable-background="new 0 0 78.13 78.25" xml:space="preserve">
	<g>
		<path fill="#8C9E64" fill-opacity="1" stroke-linejoin="round" stroke="#000000" stroke-opacity="1" d="M 11.5,0.499988L 66.625,0.499988C 72.7001,0.499988 77.625,5.42485 77.625,11.5L 77.625,66.75C 77.625,72.8251 72.7001,77.75 66.625,77.75L 11.5,77.75C 5.42487,77.75 0.5,72.8251 0.5,66.75L 0.5,11.5C 0.5,5.42485 5.42487,0.499988 11.5,0.499988 Z "/>
		<linearGradient id="SVGID_Fill1_" gradientUnits="objectBoundingBox" x1="0.5" y1="-2.34738" x2="6.19475" y2="-2.34738" gradientTransform="rotate(90.000000 0.500000 -2.347377)">
			<stop offset="0.427907" stop-color="#EEEAEA" stop-opacity="1"/>
			<stop offset="0.576744" stop-color="#FFFFFF" stop-opacity="0"/>
		</linearGradient>
		<path fill="url(#SVGID_Fill1_)" stroke-width="0.2" stroke-linejoin="round" d="M 65.9046,0.85419L 12.0427,0.85419C 6.55368,0.85419 2.0257,5.0654 1.37501,10.5032C 2.66073,13.0152 5.23251,14.7292 8.19543,14.7292L 70.1183,14.7292C 72.8569,14.7292 75.2614,13.2649 76.625,11.0596C 76.2272,5.35539 71.5795,0.85419 65.9046,0.85419 Z "/>
	</g>
	<g>
		<path fill="#000000" fill-opacity="1" stroke-linejoin="round" d="M 35.0725,39.3569C 32.9608,40.5556 30.575,41.155 27.915,41.155C 24.8554,41.155 22.3901,40.1889 20.5191,38.2566C 18.648,36.3243 17.7125,33.7438 17.7125,30.515C 17.7125,27.2513 18.7428,24.5687 20.8034,22.4672C 22.8641,20.3657 25.5044,19.315 28.7244,19.315C 31.0052,19.315 32.9346,19.8983 34.5125,21.065L 34.5125,23.585C 32.8179,22.4184 30.7996,21.835 28.4575,21.835C 26.1504,21.835 24.2495,22.6138 22.7547,24.1713C 21.2599,25.7288 20.5125,27.7821 20.5125,30.3313C 20.5125,32.9504 21.2008,34.9892 22.5775,36.4475C 23.9542,37.9058 25.8135,38.635 28.1556,38.635C 29.7685,38.635 31.1408,38.3346 32.2725,37.7338L 32.2725,32.195L 27.7925,32.195L 27.7925,29.675L 35.0725,29.675L 35.0725,39.3569 Z "/>
		<path fill="#000000" fill-opacity="1" stroke-linejoin="round" d="M 42.6325,33.035L 42.6325,40.875L 39.8325,40.875L 39.8325,19.595L 45.8131,19.595C 48.0881,19.595 49.8534,20.1536 51.1091,21.2706C 52.3647,22.3877 52.9925,23.9861 52.9925,26.0656C 52.9925,28.1715 52.2641,29.8777 50.8072,31.1844C 49.3503,32.4911 47.5296,33.1079 45.345,33.035L 42.6325,33.035 Z M 42.6325,22.115L 42.6325,30.515L 45.1394,30.515C 46.7931,30.515 48.0487,30.141 48.9062,29.3928C 49.7637,28.6447 50.1925,27.5736 50.1925,26.1794C 50.1925,23.4698 48.5942,22.115 45.3975,22.115L 42.6325,22.115 Z "/>
		<path fill="#000000" fill-opacity="1" stroke-linejoin="round" d="M 55.7925,36.605C 56.4546,37.1971 57.3391,37.6835 58.4459,38.0641C 59.5528,38.4447 60.605,38.635 61.6025,38.635C 64.6358,38.635 66.1525,37.6127 66.1525,35.5681C 66.1525,34.9965 65.9892,34.481 65.6625,34.0216C 65.3358,33.5622 64.8881,33.1568 64.3194,32.8053C 63.7506,32.4539 62.6846,31.9121 61.1212,31.18C 58.9483,30.1154 57.517,29.1267 56.8272,28.2138C 56.1374,27.3008 55.7925,26.2567 55.7925,25.0813C 55.7925,23.3108 56.5114,21.9072 57.9494,20.8703C 59.3873,19.8335 61.2014,19.315 63.3919,19.315C 65.5356,19.315 67.1091,19.805 68.1125,20.785L 68.1125,23.305C 66.7971,22.325 65.1331,21.835 63.1206,21.835C 61.7848,21.835 60.6961,22.1055 59.8547,22.6466C 59.0132,23.1876 58.5925,23.9394 58.5925,24.9019C 58.5925,25.7565 58.8812,26.4521 59.4587,26.9888C 60.0362,27.5254 61.2904,28.2575 63.2212,29.185C 65.3446,30.1679 66.8306,31.1508 67.6794,32.1338C 68.5281,33.1167 68.9525,34.2206 68.9525,35.4456C 68.9525,37.2861 68.2707,38.6977 66.9072,39.6806C 65.5436,40.6636 63.65,41.155 61.2262,41.155C 60.3775,41.155 59.3887,41.0143 58.26,40.7328C 57.1312,40.4514 56.3087,40.1021 55.7925,39.685L 55.7925,36.605 Z "/>
	</g>
	<linearGradient id="SVGID_Fill2_" gradientUnits="objectBoundingBox" x1="0.499968" y1="1.01877" x2="1.53738" y2="1.01877" gradientTransform="rotate(-90.000000 0.499968 1.018767)">
		<stop offset="0" stop-color="#1DFF02" stop-opacity="1"/>
		<stop offset="1" stop-color="#3D8C33" stop-opacity="1"/>
	</linearGradient>
	<path fill="url(#SVGID_Fill2_)" stroke-width="0.2" stroke-linejoin="round" d="M 11.6514,56.7862L 66.4733,56.7862C 67.9032,56.7862 69.0624,57.9453 69.0624,59.3751L 69.0624,59.3751C 69.0624,60.805 67.9032,61.9641 66.4733,61.9641L 11.6514,61.9641C 10.2216,61.9641 9.0624,60.805 9.0624,59.3751L 9.0624,59.3751C 9.0624,57.9453 10.2216,56.7862 11.6514,56.7862 Z "/>
</svg>
